src/images/landing-logo.svg

<svg width="320" height="320" viewBox="0 0 320 320" fill="none" xmlns="http://www.w3.org/2000/svg">
<path opacity="0.2" fill-rule="evenodd" clip-rule="evenodd" d="M319.996 159.628C319.996 163.36 319.868 167.061 319.616 170.729V238.875V239.254V240.375V240.754V318.5V320H318.116H240.466H240.087H238.966H238.587H160.938H160.558H159.438H159.058H81.4083H81.0287H79.9083H79.5287H1.87947H0.37947V318.5V240.754V240.375V239.254V238.875V170.709C0.127871 167.048 0 163.353 0 159.628C0 155.904 0.127871 152.209 0.37947 148.547V81.5036V81.125H0.378982V79.625V1.87859V0.37859H1.87898H79.5282H81.0282V0.379058H81.4084H148.885C152.557 0.127732 156.263 0 159.998 0C163.734 0 167.44 0.127732 171.111 0.379058H238.587H238.967H240.087H240.467H318.116H319.616V1.87906V79.6255V81.1255L319.616 81.5036V148.528C319.868 152.196 319.996 155.897 319.996 159.628ZM318.116 81.5036V135.076C315.145 115.875 308.744 97.8031 299.557 81.5036H318.116ZM318.116 148.581C316.436 124.305 309.265 101.537 297.833 81.5036H240.466V159.25H318.116V148.581ZM318.116 79.6255H298.482C284.526 55.6314 264.485 35.598 240.467 21.6274V1.87906H318.116V79.6255ZM296.744 79.6255C283.087 56.441 263.675 37.0366 240.467 23.3656V79.6255H296.744ZM238.587 1.87906V20.551C222.18 11.3031 203.974 4.86144 184.624 1.87906H238.587ZM238.587 22.2756C218.435 10.7747 195.51 3.56062 171.059 1.87906H160.937V79.6255H238.587V22.2756ZM81.4084 1.87906H135.373C116.022 4.86152 97.8153 11.3035 81.4084 20.5517V1.87906ZM148.937 1.87906C124.486 3.56066 101.56 10.775 81.4084 22.2764V79.6255H159.058V1.87906H148.937ZM79.5282 1.87859V21.6284C55.5106 35.5988 35.4703 55.6317 21.5147 79.625H1.87898V1.87859H79.5282ZM79.5282 23.3666C56.3208 37.0375 36.9098 56.4413 23.2531 79.625H79.5282V23.3666ZM1.87947 81.5036H20.439C11.2512 97.8055 4.84988 115.88 1.87947 135.085V81.5036ZM1.87947 161.129V170.657C3.58763 195.394 10.9986 218.566 22.8102 238.875H79.5287V161.129H1.87947ZM1.87947 238.875V184.172C4.91819 203.818 11.5474 222.282 21.0773 238.875H1.87947ZM1.87947 240.754H22.1733C36.0976 264.25 55.8862 283.876 79.5287 297.629V318.5H1.87947V240.754ZM81.4083 318.5V298.705C100.321 309.366 121.626 316.298 144.319 318.5H81.4083ZM81.4083 296.98C104.318 310.056 130.812 317.59 159.058 317.754V240.754H81.4083V296.98ZM238.587 318.5H175.678C198.37 316.298 219.674 309.366 238.587 298.706V318.5ZM160.938 317.754C189.183 317.591 215.678 310.056 238.587 296.981V240.754H160.938V317.754ZM240.466 318.5V297.629C264.109 283.877 283.899 264.25 297.823 240.754H318.116V318.5H240.466ZM240.466 295.891C263.299 282.441 282.457 263.442 296.076 240.754H240.466V295.891ZM240.466 238.875H297.186C308.995 218.572 316.405 195.406 318.116 170.676V161.129H240.466V238.875ZM318.116 184.18C315.076 203.824 308.448 222.284 298.919 238.875H318.116V184.18ZM23.9202 240.754C37.5387 263.442 56.6963 282.441 79.5287 295.89V240.754H23.9202ZM22.1638 81.5036C10.7283 101.542 3.55626 124.317 1.87947 148.6V159.25H79.5287V81.5036H22.1638ZM81.4083 81.5036H159.058V86.6228H125.027H119.387H99.0806V159.25H81.4083V81.5036ZM99.0806 161.129H81.4083V238.875H159.058V161.129H125.027V233.188H99.0806V161.129ZM125.027 159.25H159.058V112.554H125.027V159.25ZM160.938 86.6228H198.353H203.994H224.3V159.25H238.587V81.5036H160.938V86.6228ZM224.3 161.129H238.587V238.875H160.938V161.129H198.353V233.188H224.3V161.129ZM198.353 159.25V112.554H160.938V159.25H198.353Z" fill="white"/>
</svg>

<svg xmlns="http://www.w3.org/2000/svg" width="320" height="320" fill="none" xmlns:v="https://vecta.io/nano"><path opacity=".2" fill-rule="evenodd" d="M319.996 159.628a161.93 161.93 0 0 1-.38 11.101v68.146.379 1.121.379V318.5v1.5h-1.5-77.65-.379-1.121-.379-77.649-.38-1.12-.38-77.65-.38-1.12-.38H1.879.379v-1.5-77.746-.379-1.121-.379-68.166A161.6 161.6 0 0 1 0 159.628c0-3.724.128-7.419.379-11.081V81.504v-.379h0v-1.5V1.879.379h1.5 77.649 1.5 0 .38 67.477C152.557.128 156.263 0 159.998 0s7.442.128 11.113.379h67.476.38 1.12.38 77.649 1.5v1.5 77.746 1.5.378 67.024c.252 3.668.38 7.369.38 11.1zm-1.88-78.124v53.572c-2.971-19.201-9.372-37.273-18.559-53.572h18.559zm0 67.077c-1.68-24.276-8.851-47.044-20.283-67.077h-57.367v77.746h77.65v-10.669zm0-68.955h-19.634c-13.956-23.994-33.997-44.027-58.015-57.998V1.879h77.649v77.746zm-21.372 0c-13.657-23.184-33.069-42.589-56.277-56.26v56.26h56.277zM238.587 1.879v18.672c-16.407-9.248-34.613-15.69-53.963-18.672h53.963zm0 20.397C218.435 10.775 195.51 3.561 171.059 1.879h-10.122v77.746h77.65v-57.35zM81.408 1.879h53.965a159.17 159.17 0 0 0-53.965 18.673V1.879zm67.529 0a157.81 157.81 0 0 0-67.529 20.397v57.349h77.65V1.879h-10.121zm-69.409 0v19.75C55.511 35.599 35.47 55.632 21.515 79.625H1.879V1.879h77.649zm0 21.488C56.321 37.038 36.91 56.441 23.253 79.625h56.275V23.367zM1.879 81.504h18.56C11.251 97.806 4.85 115.88 1.879 135.085V81.504zm0 79.625v9.528c1.708 24.737 9.119 47.909 20.931 68.218h56.719v-77.746H1.879zm0 77.746v-54.703a158.32 158.32 0 0 0 19.198 54.703H1.879zm0 1.879h20.294a160.62 160.62 0 0 0 57.355 56.875V318.5H1.879v-77.746zM81.408 318.5v-19.795c18.913 10.661 40.218 17.593 62.911 19.795H81.408zm0-21.52c22.91 13.076 49.404 20.61 77.65 20.774v-77h-77.65v56.226zm157.179 21.52h-62.909c22.692-2.202 43.996-9.134 62.909-19.794V318.5zm-77.649-.746c28.245-.163 54.74-7.698 77.649-20.773v-56.227h-77.649v77zm79.528.746v-20.871c23.643-13.752 43.433-33.379 57.357-56.875h20.293V318.5h-77.65zm0-22.609a159.12 159.12 0 0 0 55.61-55.137h-55.61v55.137zm0-57.016h56.72c11.809-20.303 19.219-43.469 20.93-68.199v-9.547h-77.65v77.746zm77.65-54.695c-3.04 19.644-9.668 38.104-19.197 54.695h19.197V184.18zM23.92 240.754c13.618 22.688 32.776 41.687 55.609 55.136v-55.136H23.92zm-1.756-159.25A156.91 156.91 0 0 0 1.879 148.6v10.65h77.649V81.504H22.164zm59.245 0h77.65v5.119h-34.031-5.64-20.306v72.627H81.408V81.504zm17.672 79.625H81.408v77.746h77.65v-77.746h-34.031v72.059H99.081v-72.059zm25.946-1.879h34.031v-46.696h-34.031v46.696zm35.911-72.627h37.415 5.641H224.3v72.627h14.287V81.504h-77.649v5.119zm63.362 74.506h14.287v77.746h-77.649v-77.746h37.415v72.059H224.3v-72.059zm-25.947-1.879v-46.696h-37.415v46.696h37.415z" fill="#fff"/></svg>
